tests/fixtures/lightroom-global-look.xmp
<?xml version="1.0" encoding="UTF-8"?>
<x:xmpmeta xmlns:x="adobe:ns:meta/">
  <rdf:RDF xmlns:rdf="http://www.w3.org/1999/02/22-rdf-syntax-ns#">
    <rdf:Description xmlns:crs="http://ns.adobe.com/camera-raw-settings/1.0/"
      crs:Name="QA global look"
      crs:Exposure2012="0.25"
      crs:Contrast2012="12"
      crs:Highlights2012="-20"
      crs:Shadows2012="15"
      crs:Vibrance="8"
      crs:HueAdjustmentBlue="-6"
      crs:SaturationAdjustmentBlue="10"
      crs:LuminanceAdjustmentBlue="-4"
      crs:Temperature="5600"
      crs:CameraProfile="Adobe Color">
      <crs:ToneCurvePV2012>
        <rdf:Seq>
          <rdf:li>0, 0</rdf:li>
          <rdf:li>64, 58</rdf:li>
          <rdf:li>192, 201</rdf:li>
          <rdf:li>255, 255</rdf:li>
        </rdf:Seq>
      </crs:ToneCurvePV2012>
    </rdf:Description>
  </rdf:RDF>
</x:xmpmeta>
